X: 19455
T: Jackson's Cook In The Kitchen
R: jig
M: 6/8
K: Gmajor
|:dc|~B3 ~G3|D3 ~D3|cBA dBG|FAA ABc|
~B3 ~G3|D3 ~D3|cBA dBG|GAG G2:|
|:A|~B3 def|~g3 dBG|cBA dBG|FAA ABc|
BGB def|~g3 dBG|cBA BGE|~G3 G2:|
|:(3Bcd|gdB ecA|dBG ~A3|cBA dBG|FAA ABc|
gdB ecA|dBG ~A3|cBA DBG|~G3 G2:|

